**harm	**harte	**timestamp	**phrase	**leadinstrument	**kern
*M4/4	*M4/4	*	*	*	*
*c:	*c:	*	*	*	*c:
1r;	N	0	.	r	1r;
=1	=1	=1	=1	=1	=1
*>A_intro	*>A_intro	*>A_intro	*>A_intro	*>A_intro	*>A_intro
1r	N	0.221	newline	drum kit	1r
=2	=2	=2	=2	=2	=2
1r	N	2.522	.	drum kit	1r
=3	=3	=3	=3	=3	=3
*>A2_intro	*>A2_intro	*>A2_intro	*>A2_intro	*>A2_intro	*>A2_intro
1i	C:5	4.823	newline	.	1C 1e- 1g
=4	=4	=4	=4	=4	=4
1i	C:5	6.843	.	.	1C 1e- 1g
=5	=5	=5	=5	=5	=5
1i	C:5	8.862	.	.	1C 1e- 1g
=6	=6	=6	=6	=6	=6
1i	C:5	10.882	.	.	1C 1e- 1g
=7	=7	=7	=7	=7	=7
*>B_verse	*>B_verse	*>B_verse	*>B_verse	*>B_verse	*>B_verse
1i	C:5	12.902	newline	voice	1C 1e- 1g
=8	=8	=8	=8	=8	=8
1-VI	A-:maj	14.938	.	voice	1A-- 1cc- 1ee--
=9	=9	=9	=9	=9	=9
1-III	E-:maj	16.974	.	voice	1E-- 1g- 1b--
=10	=10	=10	=10	=10	=10
1V	G:maj	19.011	.	voice	1G 1b 1dd
=11	=11	=11	=11	=11	=11
1i	C:5	21.047	.	voice	1C 1e- 1g
=12	=12	=12	=12	=12	=12
1-VI	A-:maj	23.084	.	voice	1A-- 1cc- 1ee--
=13	=13	=13	=13	=13	=13
1-III	E-:maj	25.12	.	voice	1E-- 1g- 1b--
=14	=14	=14	=14	=14	=14
1V	G:maj	27.157	.	voice	1G 1b 1dd
=15	=15	=15	=15	=15	=15
*>G_transition	*>G_transition	*>G_transition	*>G_transition	*>G_transition	*>G_transition
1V	G:maj	29.193	newline	voice	1G 1b 1dd
=16	=16	=16	=16	=16	=16
1-VI	A-:maj	31.225	.	voice	1A-- 1cc- 1ee--
=17	=17	=17	=17	=17	=17
1-VI	A-:maj	33.257	.	voice	1A-- 1cc- 1ee--
=18	=18	=18	=18	=18	=18
*>C_chorus	*>C_chorus	*>C_chorus	*>C_chorus	*>C_chorus	*>C_chorus
1i	C:min	35.289	newline	.	1C 1e- 1g
=19	=19	=19	=19	=19	=19
1-VI7	A-:maj7	37.314	.	.	1A-- 1cc- 1ee-- 1gg
=20	=20	=20	=20	=20	=20
1-VII	B-:maj(9)	39.339	.	.	1B- 1dd 1ff
=21	=21	=21	=21	=21	=21
1-VII	B-:maj(9)	41.364	.	.	1B- 1dd 1ff
=22	=22	=22	=22	=22	=22
1i	C:min	43.388	.	.	1C 1e- 1g
=23	=23	=23	=23	=23	=23
1-VI7	A-:maj7	45.413	.	.	1A-- 1cc- 1ee-- 1gg
=24	=24	=24	=24	=24	=24
1-VII	B-:maj(9)	47.438	.	.	1B- 1dd 1ff
=25	=25	=25	=25	=25	=25
1-VII	B-:maj(9)	49.463	.	.	1B- 1dd 1ff
=26	=26	=26	=26	=26	=26
*>D_interlude	*>D_interlude	*>D_interlude	*>D_interlude	*>D_interlude	*>D_interlude
1IV	F:maj	51.487	newline	.	1F 1a 1cc
=27	=27	=27	=27	=27	=27
1-VI	A-:maj	53.549	.	.	1A-- 1cc- 1ee--
=28	=28	=28	=28	=28	=28
*>A2_intro	*>A2_intro	*>A2_intro	*>A2_intro	*>A2_intro	*>A2_intro
1i	C:5	55.611	newline	.	1C 1e- 1g
=29	=29	=29	=29	=29	=29
1i	C:5	57.627	.	.	1C 1e- 1g
=30	=30	=30	=30	=30	=30
1i	C:5	59.644	.	.	1C 1e- 1g
=31	=31	=31	=31	=31	=31
1i	C:5	61.66	.	.	1C 1e- 1g
=32	=32	=32	=32	=32	=32
*>B_verse	*>B_verse	*>B_verse	*>B_verse	*>B_verse	*>B_verse
1i	C:5	63.677	newline	.	1C 1e- 1g
=33	=33	=33	=33	=33	=33
1-VI	A-:maj	65.705	.	.	1A-- 1cc- 1ee--
=34	=34	=34	=34	=34	=34
1-III	E-:maj	67.732	.	.	1E-- 1g- 1b--
=35	=35	=35	=35	=35	=35
1V	G:maj	69.76	.	.	1G 1b 1dd
=36	=36	=36	=36	=36	=36
1i	C:5	71.788	.	.	1C 1e- 1g
=37	=37	=37	=37	=37	=37
1-VI	A-:maj	73.816	.	.	1A-- 1cc- 1ee--
=38	=38	=38	=38	=38	=38
1-III	E-:maj	75.844	.	.	1E-- 1g- 1b--
=39	=39	=39	=39	=39	=39
1V	G:maj	77.871	.	.	1G 1b 1dd
=40	=40	=40	=40	=40	=40
*>G_transition	*>G_transition	*>G_transition	*>G_transition	*>G_transition	*>G_transition
1V	G:maj	79.899	newline	.	1G 1b 1dd
=41	=41	=41	=41	=41	=41
1-VI	A-:maj	81.92	.	.	1A-- 1cc- 1ee--
=42	=42	=42	=42	=42	=42
1-VI	A-:maj	83.942	.	.	1A-- 1cc- 1ee--
=43	=43	=43	=43	=43	=43
*>C_chorus	*>C_chorus	*>C_chorus	*>C_chorus	*>C_chorus	*>C_chorus
1i	C:min	85.963	newline	.	1C 1e- 1g
=44	=44	=44	=44	=44	=44
1-VI7	A-:maj7	87.98	.	.	1A-- 1cc- 1ee-- 1gg
=45	=45	=45	=45	=45	=45
1-VII	B-:maj(9)	89.996	.	.	1B- 1dd 1ff
=46	=46	=46	=46	=46	=46
1-VII	B-:maj(9)	92.013	.	.	1B- 1dd 1ff
=47	=47	=47	=47	=47	=47
1i	C:min	94.029	.	.	1C 1e- 1g
=48	=48	=48	=48	=48	=48
1-VI7	A-:maj7	96.045	.	.	1A-- 1cc- 1ee-- 1gg
=49	=49	=49	=49	=49	=49
1-VII	B-:maj(9)	98.062	.	.	1B- 1dd 1ff
=50	=50	=50	=50	=50	=50
1-VII	B-:maj(9)	100.078	.	.	1B- 1dd 1ff
=51	=51	=51	=51	=51	=51
*>E_transition	*>E_transition	*>E_transition	*>E_transition	*>E_transition	*>E_transition
1-VI	A-:maj	102.095	newline	.	1A-- 1cc- 1ee--
=52	=52	=52	=52	=52	=52
1-VII	B-:maj	104.129	.	.	1B- 1dd 1ff
=53	=53	=53	=53	=53	=53
*>F_bridge	*>F_bridge	*>F_bridge	*>F_bridge	*>F_bridge	*>F_bridge
1v	G:sus4(b7)	106.164	newline	.	1G 1b- 1dd
=54	=54	=54	=54	=54	=54
1V7b	G:7/3	108.207	.	.	1g 1B 1dd 1ff
=55	=55	=55	=55	=55	=55
4-VIc	A-:5/5	110.249	.	.	4a-- 4cc- 4E--
2.-VI	A-:5	110.76	.	.	2A-- 2cc- 2ee--
=56	=56	=56	=56	=56	=56
1-VI	A-:5	112.292	.	.	1A-- 1cc- 1ee--
=57	=57	=57	=57	=57	=57
1v	G:sus4(b7)	114.334	newline	voice	1G 1b- 1dd
=58	=58	=58	=58	=58	=58
1V7b	G:7/3	116.358	.	voice	1g 1B 1dd 1ff
=59	=59	=59	=59	=59	=59
1-VI	A-:maj	118.381	.	voice	1A-- 1cc- 1ee--
=60	=60	=60	=60	=60	=60
1-VII	B-:maj	120.405	.	voice	1B- 1dd 1ff
=61	=61	=61	=61	=61	=61
*>C_solo	*>C_solo	*>C_solo	*>C_solo	*>C_solo	*>C_solo
1i	C:min	122.429	newline	electric guitar	1C 1e- 1g
=62	=62	=62	=62	=62	=62
1-VI7	A-:maj7	124.462	.	electric guitar	1A-- 1cc- 1ee-- 1gg
=63	=63	=63	=63	=63	=63
1-VII	B-:maj(9)	126.494	.	electric guitar	1B- 1dd 1ff
=64	=64	=64	=64	=64	=64
1-VII	B-:maj(9)	128.527	.	electric guitar	1B- 1dd 1ff
=65	=65	=65	=65	=65	=65
1i	C:min	130.56	.	electric guitar	1C 1e- 1g
=66	=66	=66	=66	=66	=66
1-VI7	A-:maj7	132.593	.	electric guitar	1A-- 1cc- 1ee-- 1gg
=67	=67	=67	=67	=67	=67
1-VII	B-:maj(9)	134.626	.	electric guitar	1B- 1dd 1ff
=68	=68	=68	=68	=68	=68
1-VII	B-:maj(9)	136.658	.	electric guitar	1B- 1dd 1ff
=69	=69	=69	=69	=69	=69
*>E_solo	*>E_solo	*>E_solo	*>E_solo	*>E_solo	*>E_solo
1-VI	A-:maj	138.691	newline	electric guitar	1A-- 1cc- 1ee--
=70	=70	=70	=70	=70	=70
1-VII	B-:maj	140.715	.	electric guitar	1B- 1dd 1ff
=71	=71	=71	=71	=71	=71
*>C_chorus	*>C_chorus	*>C_chorus	*>C_chorus	*>C_chorus	*>C_chorus
1i	C:min	142.74	newline	voice	1C 1e- 1g
=72	=72	=72	=72	=72	=72
1-VI7	A-:maj7	144.765	.	voice	1A-- 1cc- 1ee-- 1gg
=73	=73	=73	=73	=73	=73
1-VII	B-:maj(9)	146.79	.	voice	1B- 1dd 1ff
=74	=74	=74	=74	=74	=74
1-VII	B-:maj(9)	148.816	.	voice	1B- 1dd 1ff
=75	=75	=75	=75	=75	=75
1i	C:min	150.841	.	voice	1C 1e- 1g
=76	=76	=76	=76	=76	=76
1-VI7	A-:maj7	152.867	.	voice	1A-- 1cc- 1ee-- 1gg
=77	=77	=77	=77	=77	=77
1-VII	B-:maj(9)	154.892	.	voice	1B- 1dd 1ff
=78	=78	=78	=78	=78	=78
1-VII	B-:maj(9)	156.917	.	voice	1B- 1dd 1ff
=79	=79	=79	=79	=79	=79
*>C_outro	*>C_outro	*>C_outro	*>C_outro	*>C_outro	*>C_outro
1i	C:min	158.943	newline	.	1C 1e- 1g
=80	=80	=80	=80	=80	=80
1-VI7	A-:maj7	160.976	.	.	1A-- 1cc- 1ee-- 1gg
=81	=81	=81	=81	=81	=81
1-VII	B-:maj(9)	163.01	.	.	1B- 1dd 1ff
=82	=82	=82	=82	=82	=82
1-VII	B-:maj(9)	165.043	.	.	1B- 1dd 1ff
=83	=83	=83	=83	=83	=83
1i	C:min	167.077	.	.	1C 1e- 1g
=84	=84	=84	=84	=84	=84
1-VI7	A-:maj7	169.11	.	.	1A-- 1cc- 1ee-- 1gg
=85	=85	=85	=85	=85	=85
1-VII	B-:maj(9)	171.143	.	.	1B- 1dd 1ff
=86	=86	=86	=86	=86	=86
1-VII	B-:maj(9)	173.177	.	.	1B- 1dd 1ff
=87	=87	=87	=87	=87	=87
1i	C:min	175.21	newline	.	1C 1e- 1g
=88	=88	=88	=88	=88	=88
1-VI7	A-:maj7	177.24	.	.	1A-- 1cc- 1ee-- 1gg
=89	=89	=89	=89	=89	=89
1-VII	B-:maj(9)	179.269	.	.	1B- 1dd 1ff
=90	=90	=90	=90	=90	=90
1-VII	B-:maj(9)	181.298	.	.	1B- 1dd 1ff
=91	=91	=91	=91	=91	=91
1i	C:min	183.328	newline	fadeout	1C 1e- 1g
=92	=92	=92	=92	=92	=92
1-VI7	A-:maj7	185.358	.	fadeout	1A-- 1cc- 1ee-- 1gg
=93	=93	=93	=93	=93	=93
1-VII	B-:maj(9)	187.387	.	fadeout	1B- 1dd 1ff
=94	=94	=94	=94	=94	=94
1-VII	B-:maj(9)	189.417	.	fadeout	1B- 1dd 1ff
=95	=95	=95	=95	=95	=95
1i	C:min	191.447	newline	voice	1C 1e- 1g
=96	=96	=96	=96	=96	=96
1-VI7	A-:maj7	193.397	.	voice	1A-- 1cc- 1ee-- 1gg
=97	=97	=97	=97	=97	=97
1-VII	B-:maj(9)	195.348	.	voice	1B- 1dd 1ff
=98	=98	=98	=98	=98	=98
1-VII	B-:maj(9)	197.298	.	voice	1B- 1dd 1ff
1r;	N	199.248	.	r	1r;
1r;	N	200.176	.	r	1r;
*-	*-	*-	*-	*-	*-
!!!OTL: Fire And Ice
!!!COC: Pat Benatar
!!!BillboardChartDate: 1981/08/15
!!!BillboardPeak: 17
!!!BillboardWeeksOnChart: 15
!!!SampleTargetRank: 25
!!!SampleActualRank: 24
!!!SampleID#: 0089
!!!RDF**harmony: **recip + pitch class of root + harmonic quality
!!!RDF**harte: Chris Harte's syntax, used by MIREX
!!!RDF**phrase: newline = linebreak in original McGill transcription
!!!RDF**timestamp: McGill audio timestamp in seconds
!!!RDF**leadinstrument: original McGill primary instrumentation annotation
!!!RDT: 2017/01/12/
!!!ENC: Nathaniel Condit-Schultz
!!!EST: Awating manual error checking and editing.
